X:1
T:Wimbledon, 87.87 D
T:William Fiske Sherwin, 1877
T:Wimbledon, 87.87 D
T:Public Domain
C:William Fiske Sherwin, 1877
Z:Public Domain
%%score ( 1 2 ) ( 3 4 )
L:1/8
M:6/8
K:Ab
V:1 treble 
V:2 treble 
V:3 bass 
V:4 bass 
V:1
 [CA]2 [CE] [CA]2 [CE] | [EA]2 [EB] [Ec]2 [CA] | [DB]2 E [DB]2 E | [EB]2 [Ec] [Ed]3 | %4
 [Ec]2 [CA] [Ec]2 [CA] | [Ec]2 [Ed] [Ae]2 [Ec] | [FB]2 [Fc] [Fd]2 [Fd] | [Ec]2 [DB] [CA]3 | %8
 [Ae]2 [Cc] [CA]2 [EB] | [FA]2 [DF] [CE] [CA]2 | [DB]2 [C=A] [EB]2 E | [EA]2 [EB] [Ec]3 | %12
 [Ae]2 [Ac] [EA]2 [EB] | [FA]2 [DF] [CE] [CA]2 | [DB]2 [C=A] [DB]2 E | [Ec]2 [DB] [CA]3 |] %16
V:2
 x6 | x6 | x2 E x E x | x6 | x6 | x6 | x6 | x6 | x6 | x6 | x5 E | x6 | x6 | x6 | x5 E | x6 |] %16
V:3
 [A,,E,]2 [A,,E,] [A,,E,]2 [A,,A,] | [C,A,]2 [E,G,] [A,,A,]2 [A,,E,] | %2
 [E,G,]2 [E,G,] [E,G,]2 [E,G,] | [E,G,]2 [E,A,] [E,B,]3 | A,2 A, A,2 A, | A,2 [A,B,] [A,C]2 A, | %6
 [D,B,]2 [C,=A,] [B,,B,]2 [B,,B,] | [E,G,]2 [E,G,] [A,,A,]3 | [A,C]2 A, [A,,E,]2 [C,A,] | %9
 [D,A,]2 [D,A,] [A,,A,] [A,,E,]2 | [E,G,]2 [E,^F,] [E,G,]2 [D,B,] | [C,A,]2 [B,,G,] [A,,A,]3 | %12
 [A,C]2 [A,E] [A,C]2 [C,A,] | [D,A,]2 [D,A,] [A,,A,] [A,,E,]2 | [E,G,]2 [E,^F,] [E,G,]2 [E,G,] | %15
 [E,A,]2 E, [A,,E,]3 |] %16
V:4
 x6 | x6 | x6 | x6 | A,2 A, A,2 A, | A,2 x A, x2 | x6 | x6 | x2 A, x3 | x6 | x6 | x6 | x6 | x6 | %14
 x6 | x2 E, x3 |] %16

